X:1
T:Ma quel ch'ha cura
T:Giammateo Asola
T:Source : Madrigali a due voci---Venetia---G.Vincenti---1587. Editor : André Vierendeels (26/04/17).
T:Notes : Original clef : C2, ( Fuga di un tempo, una quinta piu basso comincia) Editorial accidentals above the staff
T:Ma quel ch'ha cura
T:©
T:©
T:©
T:©
C:Giammateo Asola
Z:©
%%score [ 1 2 ]
L:1/8
Q:1/4=120
M:4/4
K:F
V:1 treble nm="Alto" snm="A"
V:2 treble-8 nm="Tenor" snm="T"
V:1
 z8 | z8 | D4 A4- | A2 A2 G2 E2 | F2 F2 E2 C2 | E3 F G4 | E2 A2 G2 E2 | G2 E2 DEFD | E3 F G4 | %9
w: ||Ma quel|_ ch'ha cu- ra|di tut- te le|co- * *|se, la na- tu-|ra mi- glio- * * *||
 D2 G2 F2 F2 | E4 D4 | z4 A4 | G2 E2 F4 | E2 A2 G2 E2 | F2 G2 A4 | E2 E2 G4 | F4 E3 F | %17
w: re e'l ve- ro|Di- o,|tut-|ti quei cor-|pi al suo luo-|go dis- po-|se, se- con-|do'il pro- *|
 G2 E2 D2 G2 | E2 F2 G4 | D2 G2 F2 D2 | E4 D4 | z2 D2 A2 A2 | G2 E2 F4 | E2 D2 CDEF | G3 F E2 C2 | %25
w: * prio pri- mo|de- si- *|o, d'in- tor- no'il|cie- lo|e nel suo|cen- tro po-|se, e nel _ _ _|_ _ _ suo|
 D2 D2 E4 | D4 E4 | F2 A4 G2 | A4 z2 E2 | A2 A2 G2 F2 | E3 F G2 G2 | EFGE F4 | G4 z2 D2 | %33
w: cen- tro po-|se, la|ter- * *|ra in-|di dal mar la|di _ _ par-|ti- * * * *|o, e'l|
 G2 G2 F2 E2 | F3 G AGFE | DEFG A2 G2 | F4 E4 | z4 E2 FG | A2 E2 G2 G2 | FGAF G2 F2 | E4 D4 | %41
w: pas- so'a- pert' es-|sa- laf- * * * *|* * * * * fe'il|fo- co,|se ne vo-|lo nel piu su-|bli- * * * * me|lo- co,|
 z4 D2 EF | G4 z4 | G2 AB c2 G2 | B4 A2 B2- | B2 A2 G4 | F4 z2 F2 | c4 B4 | A3 G F2 F2 | E4 D2 D2 | %50
w: se ne vo-|lo,|se ne vo- lo nel|piu su- bli-|* me lo-|co, nel|piu su-|bli- * * me|lo- co, nel|
 E2 E2 F2 A2- | AG G4 F2 | G8 |] %53
w: su- bli- me lo-||co.|
V:2
 G4 d4- | d2 d2 c2 A2 | B2 B2 A2 F2 | A3 B c4 | A2 d2 c2 A2 | c2 A2 GABG | A3 B c4 | G2 c2 B2 B2 | %8
w: Ma quel|_ ch'ha cu- ra|di tut- te le|co- * *|se, la na- tu-|ra mi- glio- * * *||re e'l ve- ro|
 A4 G4 | z4 d4 | c2 A2 B4 | A2 d2 c2 A2 | B2 c2 d4 | A2 A2 c4 | B4 A3 B | c2 A2 G2 c2 | A2 B2 c4 | %17
w: Di- o,|tut-|ti quei cor-|pi al suo luo-|go dis- po-|se, se- con-|do'il pro- *|* prio pri- mo|de- si- *|
 G2 c2 B2 G2 | A4 G4 | z2 G2 d2 d2 | c2 A2 B4 | A2 G2 FGAB | c3 B A2 F2 | G2 G2 A4 | G4 A4 | %25
w: o, d'in- tor- no'il|cie- lo,|e nel suo|cen- tro po-|se, e nel _ _ _|_ _ _ suo|cen- tro po-|se, la|
 B2 d4 c2 | d4 z2 A2 | d2 d2 c2 B2 | A3 B c2 c2 | ABcA B4 | c4 z2 G2 | c2 c2 B2 A2 | B3 c dcBA | %33
w: ter- * *|ra, in-|di dal mar la|di _ _ par-|ti- * * * *|o, e'l|pas- so'a- pert' es-|sa- laf- * * * *|
 GABc d2 c2 | B4 A4 | z4 A2 Bc | d2 A2 c2 c2 | BcdB c2 B2 | A4 G4 | z4 G2 AB | c4 z4 | %41
w: * * * * * fe'il|fo- co,|se ne vo-|lo nel piu su-|bli- * * * * me|lo- co,|se ne vo-|lo,|
 c2 de f2 c2 | e4 d2 e2 | e2 d2 c4 | B4 z2 B2 | f4 e4 | d3 c B2 B2 |"^#" A4 G2 G2 | A2 A2 B2 d2- | %49
w: se ne vo- lo nel|piu su- bli-|bli- me lo-|co, nel|piu su-|bli- * * me|lo- co, nel|piu su- bli- me|
 dc c4 B2 | c2 A2 d2 d2 | c2 B2 A4 | G8 |] %53
w: _ _ lo- *|co, nel piu su-|bli- me lo-|co.|

